assets/post/images/constellation16.svg

<svg xmlns="http://www.w3.org/2000/svg" width="1195" height="324" overflow="hidden"><defs><clipPath id="a"><path d="M2935 1616h1195v324H2935z"/></clipPath></defs><g clip-path="url(#a)" transform="translate(-2935 -1616)"><path fill="none" stroke="#000" stroke-miterlimit="8" stroke-width="9.167" d="M2935.5 1798.5h1189.38"/><path fill="#d74514" fill-rule="evenodd" d="M3834 1796.5c0-24.02 19.48-43.5 43.5-43.5s43.5 19.48 43.5 43.5-19.48 43.5-43.5 43.5-43.5-19.48-43.5-43.5"/><text fill="#d74514" font-family="Microsoft YaHei,Microsoft YaHei_MSFontService,sans-serif" font-size="73" font-weight="700" transform="translate(3821.73 1710)">3A</text><path fill-rule="evenodd" d="M4072.45 1857.2h14.26l-.4 1.75c-.9.19-1.55.4-1.94.64s-.74.59-1.05 1.07c-.31.47-.63 1.22-.96 2.23-.34 1.01-.75 2.65-1.25 4.93l-6.1 27.66c-.3 1.4-.51 2.52-.6 3.34-.1.81-.14 1.56-.14 2.22 0 1.07.26 1.83.8 2.27.53.44 1.43.7 2.69.8l-.39 1.74h-14.26l.39-1.74c.9-.14 1.58-.38 2.03-.7s.83-.76 1.14-1.33.6-1.27.86-2.09.65-2.4 1.18-4.76l6.05-27.44c.53-2.38.79-4.29.79-5.74q0-1.68-.84-2.34c-.56-.44-1.44-.69-2.65-.76Z"/><text x="4063.11" y="1899.77" fill-opacity="0" font-family="Arial,Arial_MSFontService,sans-serif" font-size="48.655">𝐼</text><path fill="#d74514" fill-rule="evenodd" d="M3143 1796.5c0-24.02 19.48-43.5 43.5-43.5s43.5 19.48 43.5 43.5-19.48 43.5-43.5 43.5-43.5-19.48-43.5-43.5"/><text fill="#d74514" font-family="Microsoft YaHei,Microsoft YaHei_MSFontService,sans-serif" font-size="73" font-weight="700" transform="translate(3114.46 1710)">-<tspan x="32.083" y="0">3A</tspan></text><path fill="#d74514" fill-rule="evenodd" d="M3373 1796.5c0-24.02 19.48-43.5 43.5-43.5s43.5 19.48 43.5 43.5-19.48 43.5-43.5 43.5-43.5-19.48-43.5-43.5m230 0c0-24.02 19.7-43.5 44-43.5s44 19.48 44 43.5-19.7 43.5-44 43.5-44-19.48-44-43.5"/><text fill="#d74514" font-family="Microsoft YaHei,Microsoft YaHei_MSFontService,sans-serif" font-size="73" font-weight="700" transform="translate(3373.03 1710)">-<tspan x="32.084" y="0">A</tspan><tspan x="246.451" y="0">A</tspan></text></g></svg>

<svg width="1195" height="324" xmlns="http://www.w3.org/2000/svg" xmlns:xlink="http://www.w3.org/1999/xlink" overflow="hidden"><defs><clipPath id="clip0"><rect x="2935" y="1616" width="1195" height="324"/></clipPath></defs><g clip-path="url(#clip0)" transform="translate(-2935 -1616)"><path d="M2935.5 1798.5 4124.88 1798.5" stroke="#000000" stroke-width="9.16667" stroke-miterlimit="8" fill="none" fill-rule="evenodd"/><path d="M3834 1796.5C3834 1772.48 3853.48 1753 3877.5 1753 3901.52 1753 3921 1772.48 3921 1796.5 3921 1820.52 3901.52 1840 3877.5 1840 3853.48 1840 3834 1820.52 3834 1796.5Z" fill="#D74514" fill-rule="evenodd"/><text fill="#D74514" font-family="Microsoft YaHei,Microsoft YaHei_MSFontService,sans-serif" font-weight="700" font-size="73" transform="matrix(1 0 0 1 3821.73 1710)">3A</text><path d="M4072.45 1857.2 4086.71 1857.2 4086.31 1858.95C4085.41 1859.14 4084.76 1859.35 4084.37 1859.59 4083.98 1859.83 4083.63 1860.18 4083.32 1860.66 4083.01 1861.13 4082.69 1861.88 4082.36 1862.89 4082.02 1863.9 4081.61 1865.54 4081.11 1867.82L4075.01 1895.48C4074.71 1896.88 4074.5 1898 4074.41 1898.82 4074.31 1899.63 4074.27 1900.38 4074.27 1901.04 4074.27 1902.11 4074.53 1902.87 4075.07 1903.31 4075.6 1903.75 4076.5 1904.01 4077.76 1904.11L4077.37 1905.85 4063.11 1905.85 4063.5 1904.11C4064.4 1903.97 4065.08 1903.73 4065.53 1903.41 4065.98 1903.09 4066.36 1902.65 4066.67 1902.08 4066.98 1901.51 4067.27 1900.81 4067.53 1899.99 4067.79 1899.17 4068.18 1897.59 4068.71 1895.23L4074.76 1867.79C4075.29 1865.41 4075.55 1863.5 4075.55 1862.05 4075.55 1860.93 4075.27 1860.15 4074.71 1859.71 4074.15 1859.27 4073.27 1859.02 4072.06 1858.95Z" fill-rule="evenodd"/><text fill="#000000" fill-opacity="0" font-family="Arial,Arial_MSFontService,sans-serif" font-size="48.6548" x="4063.11" y="1899.77">𝐼</text><path d="M3143 1796.5C3143 1772.48 3162.48 1753 3186.5 1753 3210.52 1753 3230 1772.48 3230 1796.5 3230 1820.52 3210.52 1840 3186.5 1840 3162.48 1840 3143 1820.52 3143 1796.5Z" fill="#D74514" fill-rule="evenodd"/><text fill="#D74514" font-family="Microsoft YaHei,Microsoft YaHei_MSFontService,sans-serif" font-weight="700" font-size="73" transform="matrix(1 0 0 1 3114.46 1710)">-<tspan font-size="73" x="32.0833" y="0">3A</tspan></text><path d="M3373 1796.5C3373 1772.48 3392.48 1753 3416.5 1753 3440.52 1753 3460 1772.48 3460 1796.5 3460 1820.52 3440.52 1840 3416.5 1840 3392.48 1840 3373 1820.52 3373 1796.5Z" fill="#D74514" fill-rule="evenodd"/><path d="M3603 1796.5C3603 1772.48 3622.7 1753 3647 1753 3671.3 1753 3691 1772.48 3691 1796.5 3691 1820.52 3671.3 1840 3647 1840 3622.7 1840 3603 1820.52 3603 1796.5Z" fill="#D74514" fill-rule="evenodd"/><text fill="#D74514" font-family="Microsoft YaHei,Microsoft YaHei_MSFontService,sans-serif" font-weight="700" font-size="73" transform="matrix(1 0 0 1 3373.03 1710)">-<tspan font-size="73" x="32.0835" y="0">A</tspan><tspan font-size="73" x="246.451" y="0">A</tspan></text></g></svg>
